X: 20912
T: Joshua's Dream
R: waltz
M: 3/4
K: Gmajor
D BA|G2 B,D GB|A2 DF Ac|B2 GA Bd|e2 f2 g2|
d2 GA Bd|EF d3F|E2 G2 c2|A3D BA|
G2 B,D GB|A2 DF Ac|B2 GA Bd|e2 f2 g2|
d2 g3 d|ed cB AG|A2 F2 d2|G3 D BA|
G2 B,D GB|A2 DF Ac|B2 GA Bd|e2 f2 g2|
d2 GA Bd|EF d3 F|E2 G2 c2|AG FE DC|
D2 G,D GB|E2 A,E Ac|F2 B,F Bd|G2 CG ce|
d2 g2 b2|ed cB AG|A2 d2 f2|g3 G ba||
b2 gd BG|a2 fd AF|g2 eg c'e'|d'2 b3 g2|
ed cB ce|dc BA GF|E2 G2 c2|Ad ef ga|
b2 ab gd|a2 ba gf|g2 Bg ag|f2 Bb gf|
e2 Ge dc|d2 Gd cB|A2 d2 f2|g3 d c'b|
b2 gd BG|a2 fd AF|g2 eg c'e '|d'2 b3 g|
ed cB ce|dc BA GF|E2 G2 c2|AB cd ef|
g2 dB ga|f2 dB fg|e2 fg af|d2 ef ge|
c2 ea ba|g2 dB cB|AF ED CA,|G,3||

